GamePadViewer/DS4/Purple-Green/assets/sticks.svg

<svg id="Layer_1" data-name="Layer 1" xmlns="http://www.w3.org/2000/svg" width="286" height="94" viewBox="0 0 286 94">
    <g>
        <g>
            <path d="M47,92.5C22.039,92.5 1.5,71.961 1.5,47C1.5,22.039 22.039,1.5 47,1.5C71.961,1.5 92.5,22.039 92.5,47C92.478,71.952 71.952,92.478 47,92.5Z" style="fill:rgb(0,113,6);fill-rule:nonzero;"/>
            <path d="M47,3C71.138,3 91,22.862 91,47C91,71.138 71.138,91 47,91C22.862,91 3,71.138 3,47C3,22.862 22.862,3 47,3M47,0C21.217,0 -0,21.217 0,47C0,72.783 21.217,94 47,94C72.783,94 94,72.783 94,47C94,46.983 94,46.967 94,46.95C94,21.194 72.806,-0 47.05,-0C47.033,-0 47.017,-0 47,0Z" style="fill:rgb(2,149,10);fill-rule:nonzero;"/>
        </g>
        <circle cx="47" cy="47" r="27.3" style="fill:rgb(2,149,10);"/>
    </g>
    <g>
        <g>
            <path d="M239,92.5C214.039,92.5 193.5,71.961 193.5,47C193.5,22.039 214.039,1.5 239,1.5C263.961,1.5 284.5,22.039 284.5,47C284.478,71.952 263.952,92.478 239,92.5Z" style="fill:rgb(57,0,113);fill-rule:nonzero;"/>
            <path d="M239,3C263.138,3 283,22.862 283,47C283,71.138 263.138,91 239,91C214.862,91 195,71.138 195,47C195,22.862 214.862,3 239,3M239,0C213.217,0 192,21.217 192,47C192,72.783 213.217,94 239,94C264.783,94 286,72.783 286,47C286,46.983 286,46.967 286,46.95C286,21.194 264.806,-0 239.05,-0C239.033,-0 239.017,-0 239,0Z" style="fill:rgb(86,0,173);fill-rule:nonzero;"/>
        </g>
        <circle cx="239" cy="47" r="27.3" style="fill:rgb(86,0,173);"/>
        <g>
            <path d="M218.5,33.5L231.3,33.5C237.1,33.5 240,36.2 240,40.6C240,45.7 236.5,47 235.6,47.3L235.6,47.4C237.2,47.6 239.5,48.8 239.5,53C239.5,56.1 239.9,58.9 240.9,60L235.9,60C235.315,58.789 235.072,57.439 235.2,56.1C235.2,51.3 234.2,49.1 229.9,49.1L223.1,49.1L223.1,60L218.5,60L218.5,33.5ZM223.3,45.6L230.9,45.6C233.9,45.6 235.4,44.2 235.4,41.4C235.4,38 233.2,37.4 230.8,37.4L223.3,37.4L223.3,45.6Z" style="fill:white;fill-rule:nonzero;"/>
            <path d="M250.3,44.8C253.1,44.9 256,43.9 256,40.7C256,40.7 256,40.699 256,40.699C256,38.663 254.325,36.989 252.29,36.989C252.193,36.989 252.096,36.992 252,37C249.1,37 247.6,39.6 247.7,42.3L243.5,42.3C243.7,37.3 246.9,33.5 252.1,33.5C256.1,33.5 260.3,35.8 260.3,40.4C260.3,43 259.2,45.1 256.6,45.9L256.6,46C259.6,46.6 261.3,49.1 261.3,52.5C261.3,57.4 257,60.4 252.1,60.4C246.1,60.4 243.1,56.8 243,51.4L247.2,51.4C247.1,54.5 248.8,56.9 252.1,56.9C254.9,56.9 257.1,55.2 257.1,52.3C257.1,48.3 253.7,47.8 250.3,47.9L250.3,44.8Z" style="fill:white;fill-rule:nonzero;"/>
        </g>
    </g>
    <g>
        <g>
            <path d="M143,92.5C118.039,92.5 97.5,71.961 97.5,47C97.5,22.039 118.039,1.5 143,1.5C167.961,1.5 188.5,22.039 188.5,47C188.478,71.952 167.952,92.478 143,92.5Z" style="fill:rgb(57,0,113);fill-rule:nonzero;"/>
            <path d="M143,3C167.138,3 187,22.862 187,47C187,71.138 167.138,91 143,91C118.862,91 99,71.138 99,47C99,22.862 118.862,3 143,3M143,0C117.217,0 96,21.217 96,47C96,72.783 117.217,94 143,94C168.783,94 190,72.783 190,47C190,46.983 190,46.967 190,46.95C190,21.194 168.806,-0 143.05,-0C143.033,-0 143.017,-0 143,0Z" style="fill:rgb(86,0,173);fill-rule:nonzero;"/>
        </g>
        <circle cx="143" cy="47" r="27.3" style="fill:rgb(86,0,173);"/>
        <g>
            <path d="M125.1,33.5L129.7,33.5L129.7,55.9L143.1,55.9L143.1,59.9L125.1,59.9L125.1,33.5Z" style="fill:white;fill-rule:nonzero;"/>
            <path d="M151.9,44.8C154.7,44.9 157.6,43.9 157.6,40.7C157.6,40.7 157.6,40.699 157.6,40.699C157.6,38.663 155.925,36.989 153.89,36.989C153.793,36.989 153.696,36.992 153.6,37C150.7,37 149.2,39.6 149.3,42.3L145.1,42.3C145.3,37.3 148.5,33.5 153.7,33.5C157.7,33.5 161.9,35.8 161.9,40.4C161.9,43 160.8,45.1 158.2,45.9L158.2,46C161.2,46.6 162.9,49.1 162.9,52.5C162.9,57.4 158.6,60.4 153.7,60.4C147.7,60.4 144.7,56.8 144.6,51.4L148.8,51.4C148.7,54.5 150.4,56.9 153.7,56.9C156.5,56.9 158.7,55.2 158.7,52.3C158.7,48.3 155.3,47.8 151.9,47.9L151.9,44.8Z" style="fill:white;fill-rule:nonzero;"/>
        </g>
    </g>
</svg>

<svg id="Layer_1" data-name="Layer 1" xmlns="http://www.w3.org/2000/svg" width="286" height="94" viewBox="0 0 286 94">
  <defs>
    <style>
      .cls-1 {
        fill: #0f0f0f;
      }

      .cls-2 {
        fill: #121212;
      }

      .cls-3 {
        fill: #141414;
      }

      .cls-4 {
        fill: #f0f0f0;
      }

      .cls-5 {
        fill: #ededed;
      }

      .cls-6 {
        fill: #ebebeb;
      }
    </style>
  </defs>
  <g>
    <g>
      <path class="cls-1" d="M47,92.5A45.5,45.5,0,1,1,92.5,47,45.54,45.54,0,0,1,47,92.5Z"/>
      <path class="cls-2" d="M47,3A44,44,0,1,1,3,47,44,44,0,0,1,47,3m0-3A47,47,0,1,0,94,47,46.95,46.95,0,0,0,47,0Z"/>
    </g>
    <circle class="cls-3" cx="47" cy="47" r="27.3"/>
  </g>
  <g>
    <g>
      <path class="cls-4" d="M239,92.5A45.5,45.5,0,1,1,284.5,47,45.54,45.54,0,0,1,239,92.5Z"/>
      <path class="cls-5" d="M239,3a44,44,0,1,1-44,44A44,44,0,0,1,239,3m0-3a47,47,0,1,0,47,47A46.95,46.95,0,0,0,239,0Z"/>
    </g>
    <circle class="cls-6" cx="239" cy="47" r="27.3"/>
    <g>
      <path d="M218.7,33.5h12.6c5.8,0,8.7,2.7,8.7,7.1,0,5.1-3.5,6.4-4.4,6.7v.1c1.6.2,3.9,1.4,3.9,5.6,0,3.1.4,5.9,1.4,7h-5a7.36,7.36,0,0,1-.7-3.9c0-4.8-1-7-5.3-7h-6.8V60h-4.6V33.5Zm4.6,12.1h7.6q4.5,0,4.5-4.2c0-3.4-2.2-4-4.6-4h-7.5Z"/>
      <path d="M250.3,44.8c2.8.1,5.7-.9,5.7-4.1a3.71,3.71,0,0,0-4-3.7c-2.9,0-4.4,2.6-4.3,5.3h-4.2c.2-5,3.4-8.8,8.6-8.8,4,0,8.2,2.3,8.2,6.9,0,2.6-1.1,4.7-3.7,5.5V46c3,.6,4.7,3.1,4.7,6.5,0,4.9-4.3,7.9-9.2,7.9-6,0-9-3.6-9.1-9h4.2c-.1,3.1,1.6,5.5,4.9,5.5,2.8,0,5-1.7,5-4.6,0-4-3.4-4.5-6.8-4.4V44.8Z"/>
    </g>
  </g>
  <g>
    <g>
      <path class="cls-4" d="M143,92.5A45.5,45.5,0,1,1,188.5,47,45.54,45.54,0,0,1,143,92.5Z"/>
      <path class="cls-5" d="M143,3A44,44,0,1,1,99,47,44,44,0,0,1,143,3m0-3a47,47,0,1,0,47,47A46.95,46.95,0,0,0,143,0Z"/>
    </g>
    <circle class="cls-6" cx="143" cy="47" r="27.3"/>
    <g>
      <path d="M125.1,33.5h4.6V55.9h13.4v4h-18Z"/>
      <path d="M151.9,44.8c2.8.1,5.7-.9,5.7-4.1a3.71,3.71,0,0,0-4-3.7c-2.9,0-4.4,2.6-4.3,5.3h-4.2c.2-5,3.4-8.8,8.6-8.8,4,0,8.2,2.3,8.2,6.9,0,2.6-1.1,4.7-3.7,5.5V46c3,.6,4.7,3.1,4.7,6.5,0,4.9-4.3,7.9-9.2,7.9-6,0-9-3.6-9.1-9h4.2c-.1,3.1,1.6,5.5,4.9,5.5,2.8,0,5-1.7,5-4.6,0-4-3.4-4.5-6.8-4.4V44.8Z"/>
    </g>
  </g>
</svg>
